icons/Finance/money-pound-box-fill.svg

<svg viewBox="0 0 24 24" xmlns="http://www.w3.org/2000/svg"><path d="M3.00488 3.00293H21.0049C21.5572 3.00293 22.0049 3.45064 22.0049 4.00293V20.0029C22.0049 20.5552 21.5572 21.0029 21.0049 21.0029H3.00488C2.4526 21.0029 2.00488 20.5552 2.00488 20.0029V4.00293C2.00488 3.45064 2.4526 3.00293 3.00488 3.00293ZM9.00488 13.0029V15.0029H8.00488V17.0029H16.0049V15.0029H11.0049V13.0029H14.0049V11.0029H11.0049V10.0029C11.0049 9.1745 11.6765 8.50293 12.5049 8.50293C13.0329 8.50293 13.4971 8.77572 13.7644 9.18804L15.7509 8.69143C15.2319 7.40823 13.9741 6.50293 12.5049 6.50293C10.5719 6.50293 9.00488 8.06993 9.00488 10.0029V11.0029H8.00488V13.0029H9.00488Z"/></svg>

<svg xmlns="http://www.w3.org/2000/svg" viewBox="0 0 24 24">
    <g>
        <path fill="none" d="M0 0h24v24H0z"/>
        <path d="M3 3h18a1 1 0 0 1 1 1v16a1 1 0 0 1-1 1H3a1 1 0 0 1-1-1V4a1 1 0 0 1 1-1zm6 10v2H8v2h8v-2h-5v-2h3v-2h-3v-1a1.5 1.5 0 0 1 2.76-.815l1.986-.496A3.501 3.501 0 0 0 9 10v1H8v2h1z"/>
    </g>
</svg>
